X:1
T:Captain Jinks of the Horse Marines
M:6/8
L:1/8
K:G
 G| B2 D DDD| E2 D G2 B| A2 c E2 F| G2 A B2 G| B2 D D2 D| E2 D G2 B/2B/2|\
 A2 c E2 F| GG z z2 G| c2 c c2 c| c2 B B3| B2 A A2- D| A2 G G2 G| c2 c c2 c|\
 c2 B B2 B| A2 A AB^c| dD z z2 G| B2 D D2 D/2D/2| E2 D G2 B| A2 c E2 F|\
 G2 A B2 G| B2 D D2 D| E2 D G2 B/2B/2| A2 c E2 F| GG z z2||
